!!!!SEGMENT: pl-sa--481-a-viii-121--031_anonim--piesn.krn
!!!cenid: 18xx:402
!!!COM: Anonim
!!!COM-rismid: pe30004985
!!!CDT:
!!!CNT:
!!!OTL: Pieśń
!!!PDT:
!!!AGN: Secular
!!!SMS-siglum: PL-SA
!!!SMS-shelfmark: 481/A VIII 121
!!!SMS-shelfwork: 031 W
!!!SMS-variant:
!!!SMS-altvar:
!!!NIFC-rismid: 1001070699
!!!URL-scan: http://bc.bdsandomierz.pl/dlibra/publication/1212/edition/1171/content
!!!ONB-nifc: Str. 22, s. 3
!!!key:
**kern	**kern
*part1	*part1
*staff2	*staff1
*Ipiano	*Iempty
*I"Pianoforte	*
*I'P-no	*
*clefG2	*clefG2
*k[]	*k[]
*C:	*C:
*M3/8	*M3/8
*>[A,A,B,B]	*>[A,A,B,B]
=1	=1
*>A	*>A
!	!LO:TX:a:t=Pieśń
!LO:TX:a:t=P:problem=błędnie wpisane metrum 3/4	!LO:TX:a:t=P:problem=błędnie wpisane metrum 3/4
8c/L	8eeL 8cc\
8e/	8.eeJ 8.cc\
8g/J	.
.	16gg 16ee\
=2	=2
8B/L	16ggLL 16ee\
.	16ffJJ 16dd\
8d/	4ff 4dd\
8g/J	.
=3	=3
*rep	*
8B/L	16ddLL 16b\
.	16ddJ 16b\
8d/	8.ddJ 8.b\
8g/J	.
.	16ff 16dd\
*Xrep	*
=4	=4
8c/L	16ffLL 16dd\
.	16eeJJ 16cc\
8e/	4ee 4b\
8g/J	.
=5:|!|:	=5:|!|:
*>B	*>B
8c/L	8cccL 8aa\
8f/	8aaJ 8ff\
8a/J	16ff\LL
.	16gg\JJ
=6	=6
8c/L	16aaLL 16ff\
.	16ggJJ 16ee\
8e/	4gg 4ee\
8g/J	.
=7	=7
8d/L	16ffLL 16dd\
.	16ffJ 16dd\
8f/	8.ffJ 8.dd\
8g/J	.
.	16gg 16ee\
=8	=8
8c/L	16aaLL 16ff\
.	16ggJJ 16ee\
8e/	4gg 4ee\
8g/J	.
=9	=9
8c/L	8cccL 8aa\
8f/	8aaJ 8ff\
8a/J	16ff\LL
.	16aa\JJ
=10	=10
8c/L	16aaLL 16ff\
.	16ggJJ 16ee\
8e/	4gg 4ee\
8g/J	.
=11	=11
8B/L	16ffLL 16dd\
.	16ddJJ 16b\
8d/	8.ddL 8.b\
8g/J	.
.	16b\Jk
=12	=12
*clefF4	*
4c 4C\	8ddL 8f/
.	8ccJ 8e/
4C/	4cc 4e/
=:|!;;	=:|!;;
*-	*-
!!!system-decoration: s1,s2
!!!AIN: 1 piano
!!!ENC: Marta Lawrence
!!!END: 2020-11-22
!!!ENC: Tomasz Grochalski
!!!END: 2020-06-14
